svgs/thin/flask-round-potion.svg

<svg xmlns="http://www.w3.org/2000/svg" viewBox="0 0 448 512"><!--! Font Awesome Pro 6.3.0 by @fontawesome - https://fontawesome.com License - https://fontawesome.com/license (Commercial License) Copyright 2023 Fonticons, Inc. --><path d="M288 154.1V16h24C316.4 16 320 12.41 320 8S316.4 0 312 0h-176C131.6 0 128 3.594 128 8S131.6 16 136 16H160v138.1C76.46 181.1 16 259.5 16 352c0 59.91 25.35 113.9 65.88 151.8C87.68 509.3 95.54 512 103.5 512h241c7.945 0 15.8-2.738 21.6-8.168C406.7 465.9 432 411.9 432 352C432 259.5 371.5 181.1 288 154.1zM164.9 169.4L176 165.8V16h96v149.8l11.08 3.582c79.36 25.66 132.7 98.84 132.9 182.2l-2.902 .0117C380.4 351.9 336.1 352 280.7 324.3C203.5 285.7 118.3 286.4 34.1 325.6C44.05 253.3 93.95 192.3 164.9 169.4zM355.2 492.2C352.6 494.6 348.7 496 344.5 496H103.5c-4.164 0-8.055-1.402-10.66-3.848C53.6 455.4 32 405.7 32 352c0-2.828 .543-5.531 .6641-8.336c83.54-41.51 164.6-43.18 240.9-5.008c53.84 26.94 99.16 28.94 131.1 28.94c2.938 0 10.53-.0391 10.53-.0391C411.4 415.2 390.6 459 355.2 492.2z"/></svg>

<svg xmlns="http://www.w3.org/2000/svg" viewBox="0 0 448 512"><!-- Font Awesome Pro 6.0.0-alpha2 by @fontawesome - https://fontawesome.com License - https://fontawesome.com/license (Commercial License) --><path d="M288 154.137V16H312C316.406 16 320 12.406 320 8S316.406 0 312 0H136C131.594 0 128 3.594 128 8S131.594 16 136 16H160V154.137C76.461 181.145 16 259.469 16 352C16 411.91 41.348 465.879 81.883 503.832C87.684 509.262 95.539 512 103.484 512H344.516C352.461 512 360.316 509.262 366.117 503.832C406.652 465.879 432 411.91 432 352C432 259.469 371.539 181.145 288 154.137ZM164.922 169.359L176 165.777V16H272V165.777L283.078 169.359C362.438 195.016 415.77 268.199 415.965 351.551L413.063 351.562C380.375 351.938 336.062 352 280.719 324.344C203.453 285.664 118.32 286.441 34.102 325.594C44.051 253.344 93.945 192.305 164.922 169.359ZM355.184 492.152C352.57 494.598 348.68 496 344.516 496H103.484C99.32 496 95.43 494.598 92.82 492.152C53.598 455.434 32 405.656 32 352C32 349.172 32.543 346.469 32.664 343.664C116.203 302.156 197.273 300.48 273.563 338.656C327.406 365.594 372.719 367.594 404.688 367.594C407.625 367.594 410.438 367.563 413.156 367.563L415.219 367.555C411.445 415.211 390.574 459.016 355.184 492.152Z"/></svg>
